X:1
T:Title
%%score { 1 | 2 }
L:1/8
M:4/4
K:F
V:1 treble nm="Grand Piano"
V:2 bass 
V:1
 z4 z2[Q:1/4=100] C2 | A2 A2 B3 A | [CEA]2 [B,EG]2 [B,EG]2 [E,C]2 | [B,EG]2 [B,EG]2 [CEA]3 G | %4
[M:2/4] G2 F2 | F2 C2 |[M:4/4] A2 [FA]2 [FB]3 [_EA] | [Dc]2 [DB]2 [DB]2 D2 | F2 F2 [EA]3 G | %9
[M:3/4] G2 F4 |[M:1/4] A2 |[M:4/4] c2 c2 d3 c | c2 A4 A2 | c2 A2 G3 F | [FA]2 [EG]4 C2 | %15
 A2 [FA]2 [FB]3 [_EA] | [Dc]2 [DB]2 [DB]2 D2 | F2 F2 [EA]3 G |[M:3/4] G2 F4 |] %19
V:2
 z4 z2 [F,A,]2 | [F,CF]2 [F,CF]2 [F,DF]3 [F,CF] | C,2 C,2 C,2 C,2 | C,2 C,2 C,3 [C,B,C] | %4
[M:2/4] [F,B,C]2 [F,A,C]2 | [F,A,C]2 [F,A,]2 |[M:4/4] [F,CF]2 [_E,C]2 [D,B,]3 [C,F,] | %7
 [B,,F,]2 [B,,F,]2 [B,,F,]2 [B,,B,]2 | [C,A,C]2 [C,A,C]2 [C,C]3 [C,B,C] | %9
[M:3/4] [F,B,C]2 [F,A,C]4 |[M:1/4] [F,C]2 |[M:4/4][K:treble] [F,A,F]2 [F,A,F]2 [F,B,F]3 [F,A,F] | %12
 [F,A,F]2 [F,CF]4 [F,CF]2 | [A,CF]2[K:bass] [F,CF]2 [E,C]3 [D,=B,D] | [C,C]2 [C,C]4 E,2 | %15
 [F,CF]2 [_E,C]2 [D,B,]3 [C,F,] | [B,,F,]2 [B,,F,]2 [B,,F,]2 [B,,B,]2 | %17
 [C,A,C]2 [C,A,C]2 [C,C]3 [C,B,C] |[M:3/4] [F,B,C]2 [F,A,C]4 |] %19

